assets/1. 1-F/Barber pole/Color/Barber.Pole-color.svg

<svg width="100%" height="100%" viewBox="0 0 32 32" fill="none" xmlns="http://www.w3.org/2000/svg">
<g filter="url(#filter0_i_18_8803)">
<path d="M11.5674 4.45701C11.5674 3.13152 12.6419 2.05701 13.9674 2.05701H17.1427C18.4681 2.05701 19.5427 3.13152 19.5427 4.45701V7.07503H11.5674V4.45701Z" fill="url(#paint0_radial_18_8803)"/>
</g>
<path d="M11.5674 4.45701C11.5674 3.13152 12.6419 2.05701 13.9674 2.05701H17.1427C18.4681 2.05701 19.5427 3.13152 19.5427 4.45701V7.07503H11.5674V4.45701Z" fill="url(#paint1_radial_18_8803)"/>
<path d="M11.5674 4.45701C11.5674 3.13152 12.6419 2.05701 13.9674 2.05701H17.1427C18.4681 2.05701 19.5427 3.13152 19.5427 4.45701V7.07503H11.5674V4.45701Z" fill="url(#paint2_linear_18_8803)"/>
<path d="M11.5674 4.45701C11.5674 3.13152 12.6419 2.05701 13.9674 2.05701H17.1427C18.4681 2.05701 19.5427 3.13152 19.5427 4.45701V7.07503H11.5674V4.45701Z" fill="url(#paint3_radial_18_8803)"/>
<rect x="11.5541" y="9.18872" width="8.00201" height="18.2607" fill="url(#paint4_linear_18_8803)"/>
<rect x="11.5541" y="9.18872" width="8.00201" height="18.2607" fill="url(#paint5_linear_18_8803)"/>
<rect x="11.5541" y="9.18872" width="8.00201" height="18.2607" fill="url(#paint6_linear_18_8803)"/>
<rect x="11.5541" y="9.18872" width="8.00201" height="18.2607" fill="url(#paint7_linear_18_8803)"/>
<path d="M11.5541 16.0634V13.5515L19.5561 9.82007V12.332L11.5541 16.0634Z" fill="url(#paint8_linear_18_8803)"/>
<path d="M11.5541 16.0634V13.5515L19.5561 9.82007V12.332L11.5541 16.0634Z" fill="url(#paint9_linear_18_8803)"/>
<path d="M11.5541 16.0634V13.5515L19.5561 9.82007V12.332L11.5541 16.0634Z" fill="url(#paint10_linear_18_8803)"/>
<path d="M11.5541 16.0634V13.5515L19.5561 9.82007V12.332L11.5541 16.0634Z" fill="url(#paint11_radial_18_8803)"/>
<path d="M17.4173 9.18872L11.5541 11.9228V9.41083L12.0304 9.18872H17.4173Z" fill="url(#paint12_linear_18_8803)"/>
<path d="M17.4173 9.18872L11.5541 11.9228V9.41083L12.0304 9.18872H17.4173Z" fill="url(#paint13_linear_18_8803)"/>
<path d="M17.4173 9.18872L11.5541 11.9228V9.41083L12.0304 9.18872H17.4173Z" fill="url(#paint14_linear_18_8803)"/>
<path d="M11.5541 20.2978V17.7858L19.5561 14.0544V16.5664L11.5541 20.2978Z" fill="url(#paint15_linear_18_8803)"/>
<path d="M11.5541 20.2978V17.7858L19.5561 14.0544V16.5664L11.5541 20.2978Z" fill="url(#paint16_linear_18_8803)"/>
<path d="M11.5541 24.4541V21.9421L19.5561 18.2107V20.7227L11.5541 24.4541Z" fill="url(#paint17_linear_18_8803)"/>
<path d="M11.5541 24.4541V21.9421L19.5561 18.2107V20.7227L11.5541 24.4541Z" fill="url(#paint18_linear_18_8803)"/>
<path d="M14.675 27.4494H11.5541V26.1608L19.5561 22.4294V25.4253L14.675 27.4494Z" fill="url(#paint19_linear_18_8803)"/>
<rect x="8.5741" y="5.04871" width="13.9618" height="4.98711" rx="2.49355" fill="url(#paint20_linear_18_8803)"/>
<rect x="8.5741" y="5.04871" width="13.9618" height="4.98711" rx="2.49355" fill="url(#paint21_radial_18_8803)"/>
<rect x="8.5741" y="5.04871" width="13.9618" height="4.98711" rx="2.49355" fill="url(#paint22_radial_18_8803)"/>
<g filter="url(#filter1_f_18_8803)">
<ellipse cx="17.9133" cy="6.8369" rx="3.97523" ry="1.12975" fill="url(#paint23_radial_18_8803)"/>
</g>
<rect x="8.5741" y="24.9559" width="13.9618" height="4.98711" rx="2.49355" fill="url(#paint24_linear_18_8803)"/>
<rect x="8.5741" y="24.9559" width="13.9618" height="4.98711" rx="2.49355" fill="url(#paint25_radial_18_8803)"/>
<rect x="8.5741" y="24.9559" width="13.9618" height="4.98711" rx="2.49355" fill="url(#paint26_radial_18_8803)"/>
<g filter="url(#filter2_f_18_8803)">
<ellipse cx="17.9133" cy="26.8059" rx="3.97523" ry="1.12975" fill="url(#paint27_radial_18_8803)"/>
</g>
<defs>
<filter id="filter0_i_18_8803" x="11.5674" y="2.05701" width="8.72528" height="5.01807" filterUnits="userSpaceOnUse" color-interpolation-filters="sRGB">
<feFlood flood-opacity="0" result="BackgroundImageFix"/>
<feBlend mode="normal" in="SourceGraphic" in2="BackgroundImageFix" result="shape"/>
<feColorMatrix in="SourceAlpha" type="matrix" values="0 0 0 0 0 0 0 0 0 0 0 0 0 0 0 0 0 0 127 0" result="hardAlpha"/>
<feOffset dx="0.75"/>
<feGaussianBlur stdDeviation="0.5"/>
<feComposite in2="hardAlpha" operator="arithmetic" k2="-1" k3="1"/>
<feColorMatrix type="matrix" values="0 0 0 0 0.615686 0 0 0 0 0.615686 0 0 0 0 0.643137 0 0 0 1 0"/>
<feBlend mode="normal" in2="shape" result="effect1_innerShadow_18_8803"/>
</filter>
<filter id="filter1_f_18_8803" x="12.938" y="4.70715" width="9.95044" height="4.25952" filterUnits="userSpaceOnUse" color-interpolation-filters="sRGB">
<feFlood flood-opacity="0" result="BackgroundImageFix"/>
<feBlend mode="normal" in="SourceGraphic" in2="BackgroundImageFix" result="shape"/>
<feGaussianBlur stdDeviation="0.5" result="effect1_foregroundBlur_18_8803"/>
</filter>
<filter id="filter2_f_18_8803" x="12.938" y="24.6761" width="9.95044" height="4.25952" filterUnits="userSpaceOnUse" color-interpolation-filters="sRGB">
<feFlood flood-opacity="0" result="BackgroundImageFix"/>
<feBlend mode="normal" in="SourceGraphic" in2="BackgroundImageFix" result="shape"/>
<feGaussianBlur stdDeviation="0.5" result="effect1_foregroundBlur_18_8803"/>
</filter>
<radialGradient id="paint0_radial_18_8803" cx="0" cy="0" r="1" gradientUnits="userSpaceOnUse" gradientTransform="translate(18.2437 3.4757) rotate(155.056) scale(6.87249 4.17117)">
<stop stop-color="#E9E9F1"/>
<stop offset="1" stop-color="#A39EB1"/>
</radialGradient>
<radialGradient id="paint1_radial_18_8803" cx="0" cy="0" r="1" gradientUnits="userSpaceOnUse" gradientTransform="translate(19.0166 3.13756) rotate(144.782) scale(2.01035 2.32839)">
<stop stop-color="#EBEBF4"/>
<stop offset="1" stop-color="#EBEBF4" stop-opacity="0"/>
</radialGradient>
<linearGradient id="paint2_linear_18_8803" x1="16.3377" y1="6.65754" x2="16.3377" y2="4.78254" gradientUnits="userSpaceOnUse">
<stop stop-color="#9795A0"/>
<stop offset="1" stop-color="#9795A0" stop-opacity="0"/>
</linearGradient>
<radialGradient id="paint3_radial_18_8803" cx="0" cy="0" r="1" gradientUnits="userSpaceOnUse" gradientTransform="translate(17.4889 2.88523) rotate(151.029) scale(6.98789 5.2787)">
<stop offset="0.678816" stop-color="#797982" stop-opacity="0"/>
<stop offset="0.928835" stop-color="#797982"/>
</radialGradient>
<linearGradient id="paint4_linear_18_8803" x1="11.5541" y1="15.1262" x2="18.744" y2="15.1262" gradientUnits="userSpaceOnUse">
<stop stop-color="#B69CD4"/>
<stop offset="1" stop-color="#FFF1FF"/>
</linearGradient>
<linearGradient id="paint5_linear_18_8803" x1="9.55418" y1="20.9393" x2="12.6749" y2="20.9393" gradientUnits="userSpaceOnUse">
<stop stop-color="#9A8BAD"/>
<stop offset="1" stop-color="#9A8BAD" stop-opacity="0"/>
</linearGradient>
<linearGradient id="paint6_linear_18_8803" x1="15.5551" y1="9.70435" x2="15.5551" y2="10.7356" gradientUnits="userSpaceOnUse">
<stop stop-color="#9871BB"/>
<stop offset="1" stop-color="#9871BB" stop-opacity="0"/>
</linearGradient>
<linearGradient id="paint7_linear_18_8803" x1="12.7571" y1="25.7947" x2="12.9858" y2="24.0665" gradientUnits="userSpaceOnUse">
<stop stop-color="#7C7B80"/>
<stop offset="1" stop-color="#7C7B80" stop-opacity="0"/>
</linearGradient>
<linearGradient id="paint8_linear_18_8803" x1="13.2294" y1="14.0937" x2="18.8308" y2="11.6874" gradientUnits="userSpaceOnUse">
<stop stop-color="#DA2A3D"/>
<stop offset="1" stop-color="#FF4594"/>
</linearGradient>
<linearGradient id="paint9_linear_18_8803" x1="11.0993" y1="15.1587" x2="12.9533" y2="15.1587" gradientUnits="userSpaceOnUse">
<stop stop-color="#B17072"/>
<stop offset="1" stop-color="#B17072" stop-opacity="0"/>
</linearGradient>
<linearGradient id="paint10_linear_18_8803" x1="19.3065" y1="9.40749" x2="19.0721" y2="10.5325" gradientUnits="userSpaceOnUse">
<stop offset="0.510815" stop-color="#9C487C"/>
<stop offset="1" stop-color="#9C487C" stop-opacity="0"/>
</linearGradient>
<radialGradient id="paint11_radial_18_8803" cx="0" cy="0" r="1" gradientUnits="userSpaceOnUse" gradientTransform="translate(18.1187 13.9314) rotate(-90) scale(3.12233 3.29741)">
<stop stop-color="#FF51AB"/>
<stop offset="1" stop-color="#FF51AB" stop-opacity="0"/>
</radialGradient>
<linearGradient id="paint12_linear_18_8803" x1="11.8065" y1="11.22" x2="14.6502" y2="11.22" gradientUnits="userSpaceOnUse">
<stop stop-color="#385CB4"/>
<stop offset="1" stop-color="#2861D8"/>
</linearGradient>
<linearGradient id="paint13_linear_18_8803" x1="11.0474" y1="11.6365" x2="12.3481" y2="11.6365" gradientUnits="userSpaceOnUse">
<stop stop-color="#6171A5"/>
<stop offset="1" stop-color="#6171A5" stop-opacity="0"/>
</linearGradient>
<linearGradient id="paint14_linear_18_8803" x1="14.4857" y1="9.75537" x2="14.4857" y2="10.3592" gradientUnits="userSpaceOnUse">
<stop stop-color="#2851C7"/>
<stop offset="1" stop-color="#2851C7" stop-opacity="0"/>
</linearGradient>
<linearGradient id="paint15_linear_18_8803" x1="18.5008" y1="15.7111" x2="12.4945" y2="16.8276" gradientUnits="userSpaceOnUse">
<stop stop-color="#49A7FF"/>
<stop offset="1" stop-color="#2E60C6"/>
</linearGradient>
<linearGradient id="paint16_linear_18_8803" x1="10.8626" y1="19.6441" x2="12.6377" y2="19.6441" gradientUnits="userSpaceOnUse">
<stop stop-color="#7A85AC"/>
<stop offset="1" stop-color="#7A85AC" stop-opacity="0"/>
</linearGradient>
<linearGradient id="paint17_linear_18_8803" x1="13.2294" y1="22.4843" x2="18.8308" y2="20.0781" gradientUnits="userSpaceOnUse">
<stop stop-color="#DA2A3D"/>
<stop offset="1" stop-color="#FF4594"/>
</linearGradient>
<linearGradient id="paint18_linear_18_8803" x1="11.0993" y1="23.5493" x2="12.9533" y2="23.5493" gradientUnits="userSpaceOnUse">
<stop stop-color="#B17072"/>
<stop offset="1" stop-color="#B17072" stop-opacity="0"/>
</linearGradient>
<linearGradient id="paint19_linear_18_8803" x1="18.5008" y1="23.7615" x2="14.6886" y2="25.9472" gradientUnits="userSpaceOnUse">
<stop stop-color="#49A7FF"/>
<stop offset="1" stop-color="#346CB6"/>
</linearGradient>
<linearGradient id="paint20_linear_18_8803" x1="11.6346" y1="7.04462" x2="21.777" y2="7.04462" gradientUnits="userSpaceOnUse">
<stop stop-color="#AEAAB7"/>
<stop offset="1" stop-color="#C9C8CC"/>
</linearGradient>
<radialGradient id="paint21_radial_18_8803" cx="0" cy="0" r="1" gradientUnits="userSpaceOnUse" gradientTransform="translate(8.92253 6.33874) rotate(23.4481) scale(6.7223 5.95646)">
<stop stop-color="#85838A"/>
<stop offset="1" stop-color="#85838A" stop-opacity="0"/>
</radialGradient>
<radialGradient id="paint22_radial_18_8803" cx="0" cy="0" r="1" gradientUnits="userSpaceOnUse" gradientTransform="translate(12.0804 10.314) rotate(-90) scale(3.00929 13.3746)">
<stop offset="0.0883176" stop-color="#A16CD2"/>
<stop offset="1" stop-color="#A16CD2" stop-opacity="0"/>
</radialGradient>
<radialGradient id="paint23_radial_18_8803" cx="0" cy="0" r="1" gradientUnits="userSpaceOnUse" gradientTransform="translate(21.8885 6.23847) rotate(180) scale(6.68179 2.88643)">
<stop stop-color="#E1DEE7"/>
<stop offset="1" stop-color="#E1DEE7" stop-opacity="0"/>
</radialGradient>
<linearGradient id="paint24_linear_18_8803" x1="11.6346" y1="26.9518" x2="21.777" y2="26.9518" gradientUnits="userSpaceOnUse">
<stop stop-color="#AEAAB7"/>
<stop offset="1" stop-color="#C9C8CC"/>
</linearGradient>
<radialGradient id="paint25_radial_18_8803" cx="0" cy="0" r="1" gradientUnits="userSpaceOnUse" gradientTransform="translate(8.92253 26.246) rotate(23.4481) scale(6.7223 5.95646)">
<stop stop-color="#85828D"/>
<stop offset="1" stop-color="#85828D" stop-opacity="0"/>
</radialGradient>
<radialGradient id="paint26_radial_18_8803" cx="0" cy="0" r="1" gradientUnits="userSpaceOnUse" gradientTransform="translate(11.7166 30.2253) rotate(-85.4622) scale(3.31639 20.4992)">
<stop offset="0.103656" stop-color="#B372EC"/>
<stop offset="1" stop-color="#B372EC" stop-opacity="0"/>
</radialGradient>
<radialGradient id="paint27_radial_18_8803" cx="0" cy="0" r="1" gradientUnits="userSpaceOnUse" gradientTransform="translate(21.8885 26.2075) rotate(180) scale(6.68179 2.88643)">
<stop stop-color="#E1DEE7"/>
<stop offset="1" stop-color="#E1DEE7" stop-opacity="0"/>
</radialGradient>
</defs>
</svg>

<svg width="100%" height="100%" viewBox="0 0 32 32" xmlns="http://www.w3.org/2000/svg"><g filter="url(#a)"><path fill="url(#b)" d="M11.567 4.457a2.4 2.4 0 0 1 2.4-2.4h3.176a2.4 2.4 0 0 1 2.4 2.4v2.618h-7.976z"/></g><path fill="url(#c)" d="M11.567 4.457a2.4 2.4 0 0 1 2.4-2.4h3.176a2.4 2.4 0 0 1 2.4 2.4v2.618h-7.976z"/><path fill="url(#d)" d="M11.567 4.457a2.4 2.4 0 0 1 2.4-2.4h3.176a2.4 2.4 0 0 1 2.4 2.4v2.618h-7.976z"/><path fill="url(#e)" d="M11.567 4.457a2.4 2.4 0 0 1 2.4-2.4h3.176a2.4 2.4 0 0 1 2.4 2.4v2.618h-7.976z"/><path fill="url(#f)" d="M11.554 9.189h8.002V27.45h-8.002z"/><path fill="url(#g)" d="M11.554 9.189h8.002V27.45h-8.002z"/><path fill="url(#h)" d="M11.554 9.189h8.002V27.45h-8.002z"/><path fill="url(#i)" d="M11.554 9.189h8.002V27.45h-8.002z"/><path fill="url(#j)" d="M11.554 16.063v-2.511l8.002-3.732v2.512z"/><path fill="url(#k)" d="M11.554 16.063v-2.511l8.002-3.732v2.512z"/><path fill="url(#l)" d="M11.554 16.063v-2.511l8.002-3.732v2.512z"/><path fill="url(#m)" d="M11.554 16.063v-2.511l8.002-3.732v2.512z"/><path fill="url(#n)" d="m17.417 9.189-5.863 2.734V9.41l.476-.222z"/><path fill="url(#o)" d="m17.417 9.189-5.863 2.734V9.41l.476-.222z"/><path fill="url(#p)" d="m17.417 9.189-5.863 2.734V9.41l.476-.222z"/><path fill="url(#q)" d="M11.554 20.298v-2.512l8.002-3.732v2.512z"/><path fill="url(#r)" d="M11.554 20.298v-2.512l8.002-3.732v2.512z"/><path fill="url(#s)" d="M11.554 24.454v-2.512l8.002-3.731v2.512z"/><path fill="url(#t)" d="M11.554 24.454v-2.512l8.002-3.731v2.512z"/><path fill="url(#u)" d="M14.675 27.45h-3.12v-1.29l8.001-3.73v2.995z"/><rect width="13.962" height="4.987" x="8.574" y="5.049" fill="url(#v)" rx="2.494"/><rect width="13.962" height="4.987" x="8.574" y="5.049" fill="url(#w)" rx="2.494"/><rect width="13.962" height="4.987" x="8.574" y="5.049" fill="url(#x)" rx="2.494"/><g filter="url(#y)"><ellipse cx="17.913" cy="6.837" fill="url(#z)" rx="3.975" ry="1.13"/></g><rect width="13.962" height="4.987" x="8.574" y="24.956" fill="url(#A)" rx="2.494"/><rect width="13.962" height="4.987" x="8.574" y="24.956" fill="url(#B)" rx="2.494"/><rect width="13.962" height="4.987" x="8.574" y="24.956" fill="url(#C)" rx="2.494"/><g filter="url(#D)"><ellipse cx="17.913" cy="26.806" fill="url(#E)" rx="3.975" ry="1.13"/></g><defs><linearGradient id="d" x1="16.338" x2="16.338" y1="6.658" y2="4.783" gradientUnits="userSpaceOnUse"><stop stop-color="#9795A0"/><stop offset="1" stop-color="#9795A0" stop-opacity="0"/></linearGradient><linearGradient id="f" x1="11.554" x2="18.744" y1="15.126" y2="15.126" gradientUnits="userSpaceOnUse"><stop stop-color="#B69CD4"/><stop offset="1" stop-color="#FFF1FF"/></linearGradient><linearGradient id="g" x1="9.554" x2="12.675" y1="20.939" y2="20.939" gradientUnits="userSpaceOnUse"><stop stop-color="#9A8BAD"/><stop offset="1" stop-color="#9A8BAD" stop-opacity="0"/></linearGradient><linearGradient id="h" x1="15.555" x2="15.555" y1="9.704" y2="10.736" gradientUnits="userSpaceOnUse"><stop stop-color="#9871BB"/><stop offset="1" stop-color="#9871BB" stop-opacity="0"/></linearGradient><linearGradient id="i" x1="12.757" x2="12.986" y1="25.795" y2="24.067" gradientUnits="userSpaceOnUse"><stop stop-color="#7C7B80"/><stop offset="1" stop-color="#7C7B80" stop-opacity="0"/></linearGradient><linearGradient id="j" x1="13.229" x2="18.831" y1="14.094" y2="11.687" gradientUnits="userSpaceOnUse"><stop stop-color="#DA2A3D"/><stop offset="1" stop-color="#FF4594"/></linearGradient><linearGradient id="k" x1="11.099" x2="12.953" y1="15.159" y2="15.159" gradientUnits="userSpaceOnUse"><stop stop-color="#B17072"/><stop offset="1" stop-color="#B17072" stop-opacity="0"/></linearGradient><linearGradient id="l" x1="19.306" x2="19.072" y1="9.407" y2="10.533" gradientUnits="userSpaceOnUse"><stop offset=".511" stop-color="#9C487C"/><stop offset="1" stop-color="#9C487C" stop-opacity="0"/></linearGradient><linearGradient id="n" x1="11.806" x2="14.65" y1="11.22" y2="11.22" gradientUnits="userSpaceOnUse"><stop stop-color="#385CB4"/><stop offset="1" stop-color="#2861D8"/></linearGradient><linearGradient id="o" x1="11.047" x2="12.348" y1="11.636" y2="11.636" gradientUnits="userSpaceOnUse"><stop stop-color="#6171A5"/><stop offset="1" stop-color="#6171A5" stop-opacity="0"/></linearGradient><linearGradient id="p" x1="14.486" x2="14.486" y1="9.755" y2="10.359" gradientUnits="userSpaceOnUse"><stop stop-color="#2851C7"/><stop offset="1" stop-color="#2851C7" stop-opacity="0"/></linearGradient><linearGradient id="q" x1="18.501" x2="12.495" y1="15.711" y2="16.828" gradientUnits="userSpaceOnUse"><stop stop-color="#49A7FF"/><stop offset="1" stop-color="#2E60C6"/></linearGradient><linearGradient id="r" x1="10.863" x2="12.638" y1="19.644" y2="19.644" gradientUnits="userSpaceOnUse"><stop stop-color="#7A85AC"/><stop offset="1" stop-color="#7A85AC" stop-opacity="0"/></linearGradient><linearGradient id="s" x1="13.229" x2="18.831" y1="22.484" y2="20.078" gradientUnits="userSpaceOnUse"><stop stop-color="#DA2A3D"/><stop offset="1" stop-color="#FF4594"/></linearGradient><linearGradient id="t" x1="11.099" x2="12.953" y1="23.549" y2="23.549" gradientUnits="userSpaceOnUse"><stop stop-color="#B17072"/><stop offset="1" stop-color="#B17072" stop-opacity="0"/></linearGradient><linearGradient id="u" x1="18.501" x2="14.689" y1="23.762" y2="25.947" gradientUnits="userSpaceOnUse"><stop stop-color="#49A7FF"/><stop offset="1" stop-color="#346CB6"/></linearGradient><linearGradient id="v" x1="11.635" x2="21.777" y1="7.045" y2="7.045" gradientUnits="userSpaceOnUse"><stop stop-color="#AEAAB7"/><stop offset="1" stop-color="#C9C8CC"/></linearGradient><linearGradient id="A" x1="11.635" x2="21.777" y1="26.952" y2="26.952" gradientUnits="userSpaceOnUse"><stop stop-color="#AEAAB7"/><stop offset="1" stop-color="#C9C8CC"/></linearGradient><radialGradient id="b" cx="0" cy="0" r="1" gradientTransform="rotate(155.056 8.737 3.755)scale(6.87249 4.17117)" gradientUnits="userSpaceOnUse"><stop stop-color="#E9E9F1"/><stop offset="1" stop-color="#A39EB1"/></radialGradient><radialGradient id="c" cx="0" cy="0" r="1" gradientTransform="matrix(-1.64238 1.15935 -1.34276 -1.90221 19.017 3.138)" gradientUnits="userSpaceOnUse"><stop stop-color="#EBEBF4"/><stop offset="1" stop-color="#EBEBF4" stop-opacity="0"/></radialGradient><radialGradient id="e" cx="0" cy="0" r="1" gradientTransform="rotate(151.029 8.372 3.702)scale(6.98789 5.2787)" gradientUnits="userSpaceOnUse"><stop offset=".679" stop-color="#797982" stop-opacity="0"/><stop offset=".929" stop-color="#797982"/></radialGradient><radialGradient id="m" cx="0" cy="0" r="1" gradientTransform="matrix(0 -3.12233 3.29741 0 18.119 13.931)" gradientUnits="userSpaceOnUse"><stop stop-color="#FF51AB"/><stop offset="1" stop-color="#FF51AB" stop-opacity="0"/></radialGradient><radialGradient id="w" cx="0" cy="0" r="1" gradientTransform="matrix(6.16718 2.67493 -2.37018 5.46458 8.923 6.339)" gradientUnits="userSpaceOnUse"><stop stop-color="#85838A"/><stop offset="1" stop-color="#85838A" stop-opacity="0"/></radialGradient><radialGradient id="x" cx="0" cy="0" r="1" gradientTransform="matrix(0 -3.00929 13.3746 0 12.08 10.314)" gradientUnits="userSpaceOnUse"><stop offset=".088" stop-color="#A16CD2"/><stop offset="1" stop-color="#A16CD2" stop-opacity="0"/></radialGradient><radialGradient id="z" cx="0" cy="0" r="1" gradientTransform="matrix(-6.68179 0 0 -2.88643 21.889 6.238)" gradientUnits="userSpaceOnUse"><stop stop-color="#E1DEE7"/><stop offset="1" stop-color="#E1DEE7" stop-opacity="0"/></radialGradient><radialGradient id="B" cx="0" cy="0" r="1" gradientTransform="matrix(6.16718 2.67493 -2.37018 5.46458 8.923 26.246)" gradientUnits="userSpaceOnUse"><stop stop-color="#85828D"/><stop offset="1" stop-color="#85828D" stop-opacity="0"/></radialGradient><radialGradient id="C" cx="0" cy="0" r="1" gradientTransform="matrix(.26238 -3.306 20.43494 1.62183 11.717 30.225)" gradientUnits="userSpaceOnUse"><stop offset=".104" stop-color="#B372EC"/><stop offset="1" stop-color="#B372EC" stop-opacity="0"/></radialGradient><radialGradient id="E" cx="0" cy="0" r="1" gradientTransform="matrix(-6.68179 0 0 -2.88643 21.889 26.207)" gradientUnits="userSpaceOnUse"><stop stop-color="#E1DEE7"/><stop offset="1" stop-color="#E1DEE7" stop-opacity="0"/></radialGradient><filter id="a" width="8.725" height="5.018" x="11.567" y="2.057" color-interpolation-filters="sRGB" filterUnits="userSpaceOnUse"><feFlood flood-opacity="0" result="BackgroundImageFix"/><feBlend in="SourceGraphic" in2="BackgroundImageFix" result="shape"/><feColorMatrix in="SourceAlpha" result="hardAlpha" values="0 0 0 0 0 0 0 0 0 0 0 0 0 0 0 0 0 0 127 0"/><feOffset dx=".75"/><feGaussianBlur stdDeviation=".5"/><feComposite in2="hardAlpha" k2="-1" k3="1" operator="arithmetic"/><feColorMatrix values="0 0 0 0 0.615686 0 0 0 0 0.615686 0 0 0 0 0.643137 0 0 0 1 0"/><feBlend in2="shape" result="effect1_innerShadow_18_8803"/></filter><filter id="y" width="9.95" height="4.26" x="12.938" y="4.707" color-interpolation-filters="sRGB" filterUnits="userSpaceOnUse"><feFlood flood-opacity="0" result="BackgroundImageFix"/><feBlend in="SourceGraphic" in2="BackgroundImageFix" result="shape"/><feGaussianBlur result="effect1_foregroundBlur_18_8803" stdDeviation=".5"/></filter><filter id="D" width="9.95" height="4.26" x="12.938" y="24.676" color-interpolation-filters="sRGB" filterUnits="userSpaceOnUse"><feFlood flood-opacity="0" result="BackgroundImageFix"/><feBlend in="SourceGraphic" in2="BackgroundImageFix" result="shape"/><feGaussianBlur result="effect1_foregroundBlur_18_8803" stdDeviation=".5"/></filter></defs></svg>
